docs/_assets/sweet-state-logo.svg

<?xml version="1.0" encoding="UTF-8"?>
<svg width="195px" height="195px" viewBox="0 0 195 195" version="1.1" xmlns="http://www.w3.org/2000/svg" xmlns:xlink="http://www.w3.org/1999/xlink">    
    <path d="M32.2307487,17.844417 C35.3741603,15.3189927 38.6906947,13.0541597 42.1725548,11.0498125 C50.44157,6.28971964 59.1533943,3.10078596 68.2151082,1.45678711 C68.4695324,1.41062883 68.7176809,1.37273456 68.9595564,1.34272648 C73.8394139,0.460598106 78.8659177,0 84,0 C130.391919,0 168,37.608081 168,84 C168,105.036464 160.267108,124.266813 147.488827,139.003545 L170.115165,161.629884 C172.358895,160.584032 174.861243,160 177.5,160 C187.164983,160 195,167.835017 195,177.5 C195,187.164983 187.164983,195 177.5,195 C167.835017,195 160,187.164983 160,177.5 C160,174.861243 160.584032,172.358895 161.629884,170.115165 L139.003545,147.488827 C124.266813,160.267108 105.036464,168 84,168 C37.608081,168 0,130.391919 0,84 C0,57.1380052 12.6087787,33.2209484 32.2307487,17.844417 Z M29.5868252,134.152396 C43.1083999,148.815322 62.4816017,158 84,158 C124.869071,158 158,124.869071 158,84 C158,43.1309285 124.869071,10 84,10 C66.8907985,10 51.1377437,15.8063545 38.6038461,25.5560532 C35.1602073,28.2982643 32.0255597,31.3336239 29.1960175,34.6527344 C24.032836,40.7092511 20.1174572,47.3177214 17.4040602,54.4442644 C14.6498459,61.678011 13.2209185,68.9962213 13.0590952,76.3968997 C12.8947343,83.9136305 13.9687267,91.0603827 16.2268906,97.8704127 C18.5218421,104.791385 21.8222771,110.957816 26.0940173,116.431595 C30.437599,121.997431 35.4455826,126.538611 41.1137366,130.131738 C46.8797303,133.786888 52.9102819,136.287669 59.233113,137.709672 C65.6677011,139.156809 71.9605993,139.466245 78.1676961,138.699191 C84.487415,137.918219 90.3011816,136.151079 95.6865623,133.434336 C101.172892,130.666668 105.871415,127.173827 109.873074,122.959291 C113.952819,118.662514 117.075146,113.974666 119.332829,108.859479 C121.636637,103.639785 122.94192,98.3918147 123.327554,93.0373736 C123.721454,87.5681551 123.203804,82.4143559 121.821889,77.4617443 C120.408937,72.3978986 118.281302,67.9298729 115.440118,63.922496 C112.532282,59.8211084 109.183373,56.4994894 105.341925,53.8229057 C101.406571,51.0808924 97.3388024,49.1890469 93.0380153,48.0352732 C88.6276455,46.8521016 84.3859029,46.4758006 80.1745801,46.8351992 C75.851011,47.204177 71.9518759,48.2372957 68.3176604,49.9167248 C64.5815177,51.6432561 61.4512153,53.8167128 58.7648121,56.47924 C55.9986285,59.2208385 53.9264413,62.1500316 52.4047162,65.3696431 C50.8349071,68.6909887 49.9472105,71.9352432 49.6383884,75.2591065 C49.3191559,78.6950174 49.5769965,81.8208434 50.3689215,84.8311042 C51.1893593,87.9497478 52.4092005,90.5887599 54.0589324,92.9556333 C55.7721795,95.413632 57.6656218,97.3067138 59.8454839,98.8254806 C62.115343,100.406951 64.3404993,101.428879 66.6928565,102.035884 C69.1499111,102.669905 71.3657295,102.832418 73.5574311,102.598979 C74.0681124,102.544586 74.559912,102.474368 75.0354104,102.388242 C69.9323511,99.8516965 66.4254761,94.5853855 66.4254761,88.5 C66.4254761,79.9395864 73.3650625,73 81.9254761,73 C90.4552521,73 97.375782,79.890002 97.4252096,88.4081498 C97.4315327,88.6033572 97.4353136,88.8088638 97.4366558,89.0270021 C97.4538503,91.8215408 96.9865728,94.3679299 96.0606192,96.7614505 C94.9444216,99.6467374 93.4752194,102.02317 91.6106246,104.072152 C89.3873416,106.515291 86.9967366,108.33283 84.3381261,109.675373 C81.1995244,111.260301 78.1157097,112.170037 74.9444231,112.507812 C71.2328951,112.903128 67.8120136,112.652234 64.5171526,111.802024 C60.6898818,110.814431 57.3749718,109.292021 54.4054495,107.223077 C50.9795504,104.836164 48.2440026,102.101137 46.0491671,98.9522025 C43.5337231,95.3432904 41.8172543,91.629871 40.7843986,87.7037856 C39.608566,83.2342176 39.253867,78.9341686 39.6500016,74.6705583 C40.0979536,69.8492355 41.2956854,65.4718989 43.2203487,61.3997654 C45.3828508,56.8244211 48.1324038,52.9377202 51.4884979,49.6114542 C55.2378838,45.8953919 59.3307937,43.0535697 63.8200367,40.9790187 C68.8118737,38.672211 73.8428078,37.3392098 78.9896909,36.8999695 C84.691743,36.4133505 90.0979965,36.8929597 95.3010139,38.2887751 C101.048084,39.8305439 106.173466,42.214266 110.776833,45.4217269 C115.847472,48.9547665 120.022227,53.0955019 123.39793,57.8567974 C127.105083,63.0855893 129.731498,68.6010525 131.36126,74.4419164 C133.144817,80.8339645 133.778195,87.1399624 133.326257,93.4150184 C132.833569,100.255881 131.248989,106.626782 128.617511,112.588871 C125.759736,119.063677 121.99579,124.714848 117.354767,129.602762 C112.33156,134.89319 106.703469,139.077063 100.488081,142.212517 C93.7781026,145.597475 86.855548,147.70164 79.7275576,148.582495 C72.0456405,149.531803 64.5955655,149.165466 57.3716116,147.540801 C49.5953705,145.791927 42.4959044,142.847882 36.0520714,138.76304 C33.7831809,137.324756 31.6285192,135.787322 29.5868232,134.152394 Z" fill="#DD2E44" fill-rule="nonzero" />
</svg>

<svg width="195" height="195" xmlns="http://www.w3.org/2000/svg">
    <path d="M32.23 17.844a77.93 77.93 0 0 1 9.943-6.794c8.269-4.76 16.98-7.95 26.042-9.593.255-.046.503-.084.745-.114A84.498 84.498 0 0 1 84 0c46.392 0 84 37.608 84 84 0 21.036-7.733 40.267-20.511 55.004l22.626 22.626A17.434 17.434 0 0 1 177.5 160c9.665 0 17.5 7.835 17.5 17.5s-7.835 17.5-17.5 17.5-17.5-7.835-17.5-17.5c0-2.639.584-5.141 1.63-7.385l-22.626-22.626C124.267 160.267 105.036 168 84 168c-46.392 0-84-37.608-84-84 0-26.862 12.609-50.78 32.23-66.156zm-2.643 116.308C43.108 148.815 62.482 158 84 158c40.87 0 74-33.13 74-74s-33.13-74-74-74c-17.11 0-32.862 5.806-45.396 15.556a67.987 67.987 0 0 0-9.408 9.097c-5.163 6.056-9.079 12.665-11.792 19.791-2.754 7.234-4.183 14.552-4.345 21.953-.164 7.517.91 14.663 3.168 21.473 2.295 6.921 5.595 13.088 9.867 18.562 4.344 5.565 9.352 10.107 15.02 13.7 5.766 3.655 11.796 6.156 18.12 7.578 6.434 1.447 12.727 1.756 18.934.99 6.32-.782 12.133-2.549 17.519-5.266 5.486-2.767 10.184-6.26 14.186-10.475 4.08-4.296 7.202-8.984 9.46-14.1 2.304-5.22 3.609-10.467 3.995-15.822.393-5.469-.124-10.623-1.506-15.575-1.413-5.064-3.54-9.532-6.382-13.54-2.908-4.1-6.257-7.423-10.098-10.1-3.935-2.741-8.003-4.633-12.304-5.787-4.41-1.183-8.652-1.56-12.863-1.2-4.324.37-8.223 1.402-11.857 3.082-3.736 1.726-6.867 3.9-9.553 6.562-2.766 2.742-4.839 5.671-6.36 8.89-1.57 3.322-2.458 6.566-2.767 9.89-.319 3.436-.061 6.562.73 9.572.821 3.119 2.041 5.758 3.69 8.125 1.714 2.458 3.608 4.35 5.787 5.87 2.27 1.581 4.495 2.603 6.848 3.21 2.457.634 4.673.796 6.864.563.511-.054 1.003-.125 1.478-.21-5.103-2.537-8.61-7.804-8.61-13.889 0-8.56 6.94-15.5 15.5-15.5 8.53 0 15.45 6.89 15.5 15.408.007.195.01.4.012.619.017 2.795-.45 5.34-1.376 7.734-1.117 2.886-2.586 5.262-4.45 7.311-2.224 2.443-4.614 4.26-7.273 5.603-3.138 1.585-6.222 2.495-9.394 2.833-3.711.395-7.132.144-10.427-.706-3.827-.988-7.142-2.51-10.112-4.579-3.425-2.387-6.161-5.122-8.356-8.27-2.515-3.61-4.232-7.323-5.265-11.25-1.175-4.469-1.53-8.769-1.134-13.032.448-4.822 1.646-9.2 3.57-13.271 2.163-4.576 4.912-8.462 8.268-11.789 3.75-3.716 7.843-6.557 12.332-8.632 4.992-2.307 10.023-3.64 15.17-4.079 5.702-.487 11.108-.007 16.311 1.389 5.747 1.542 10.872 3.925 15.476 7.133 5.07 3.533 9.245 7.674 12.62 12.435 3.708 5.229 6.334 10.744 7.964 16.585 1.784 6.392 2.417 12.698 1.965 18.973-.492 6.84-2.077 13.212-4.708 19.174-2.858 6.475-6.622 12.126-11.263 17.014-5.023 5.29-10.652 9.474-16.867 12.61-6.71 3.384-13.632 5.489-20.76 6.37-7.682.949-15.132.582-22.356-1.042-7.777-1.75-14.876-4.693-21.32-8.778a72.03 72.03 0 0 1-6.465-4.61z" fill="#DD2E44"/>
</svg>
